vectors/ke-elektronik/ke-elektronik-signet.svg

<svg enable-background="new 0 0 1080 1080" version="1.1" viewBox="0 0 1080 1080" xml:space="preserve" xmlns="http://www.w3.org/2000/svg">
<style type="text/css">
	.st0{fill:#2C6CB8;}
	.st1{fill:#1B1B19;}
</style>

	<path class="st0" d="m703.99 513.51h-405.6c-82.83-1.57-93.82 40.94-94.05 94.71v162.03h64.9v-161.84c0.05-5.01 1.67-30.01 29.16-30.01h365.99l39.6-64.89z"/>
	<path class="st1" d="m768.54 411.32h-520.66c-90.22 0-114.74 33.36-131.26 64.9-15.37 29.35-12.66 79.83-12.66 81.08v213.3h64.9v-213.3c0-0.21 0.28-21.24 10.37-41.83 12.94-26.41 35.4-39.25 68.65-39.25h481.04l39.62-64.9z"/>
	
		<path class="st1" d="m1040.4 375.34 39.6-64.87c-29.47-0.03-104.69-0.1-205.24-0.18l-26.15 42.84-0.26 0.05-139.2 225.09 0.96-0.02-0.1 0.16h205.34l39.62-64.9h-121.87l22.73-37.29h122.45l39.62-64.9h-122.52l22-36.09c52.23 0.04 94.6 0.08 123.02 0.11z"/>
		<path class="st0" d="m829.15 310.26c-360.5-0.27-551.44-2.99-640.24 0.22-78.89 2.85-126.99 30.57-152.54 64.86-40.11 53.84-36.27 100.88-36.27 125.44v270.29h64.9v-270.51l-0.01-0.55c-0.01-0.54-0.71-54.2 34.63-90.7 21.45-22.16 51.63-33.58 89.69-33.94 86.57-0.81 236.87-0.52 600.24-0.24l39.6-64.87z"/>
	

</svg>

<svg version="1.1" id="Ebene_1" xmlns="http://www.w3.org/2000/svg" xmlns:xlink="http://www.w3.org/1999/xlink" x="0px" y="0px"
	 viewBox="0 0 1080 1080" style="enable-background:new 0 0 1080 1080;" xml:space="preserve">
<style type="text/css">
	.st0{fill:#2C6CB8;}
	.st1{fill:#1B1B19;}
</style>
<g>
	<path class="st0" d="M703.99,513.51h-405.6c-82.83-1.57-93.82,40.94-94.05,94.71v162.03h64.9V608.41
		c0.05-5.01,1.67-30.01,29.16-30.01h365.99L703.99,513.51z"/>
	<path class="st1" d="M768.54,411.32H247.88c-90.22,0-114.74,33.36-131.26,64.9c-15.37,29.35-12.66,79.83-12.66,81.08v213.3h64.9
		V557.3c0-0.21,0.28-21.24,10.37-41.83c12.94-26.41,35.4-39.25,68.65-39.25h481.04L768.54,411.32z"/>
	<g>
		<path class="st1" d="M1040.4,375.34l39.6-64.87c-29.47-0.03-104.69-0.1-205.24-0.18l-26.15,42.84l-0.26,0.05l-139.2,225.09
			l0.96-0.02l-0.1,0.16h205.34l39.62-64.9H833.1l22.73-37.29h122.45l39.62-64.9H895.38l22-36.09
			C969.61,375.27,1011.98,375.31,1040.4,375.34z"/>
		<path class="st0" d="M829.15,310.26c-360.5-0.27-551.44-2.99-640.24,0.22c-78.89,2.85-126.99,30.57-152.54,64.86
			C-3.74,429.18,0.1,476.22,0.1,500.78v270.29H65V500.56l-0.01-0.55c-0.01-0.54-0.71-54.2,34.63-90.7
			c21.45-22.16,51.63-33.58,89.69-33.94c86.57-0.81,236.87-0.52,600.24-0.24L829.15,310.26z"/>
	</g>
</g>
</svg>
